material/.icons/material/clipboard-text-multiple.svg

<svg xmlns="http://www.w3.org/2000/svg" viewBox="0 0 24 24"><path d="M20 3h-3.2c-.4-1.2-1.5-2-2.8-2-1.3 0-2.4.8-2.8 2H8c-1.1 0-2 .9-2 2v12c0 1.1.9 2 2 2h12c1.1 0 2-.9 2-2V5c0-1.1-.9-2-2-2m-6 0c.6 0 1 .5 1 1s-.5 1-1 1-1-.5-1-1 .4-1 1-1m2 11H9v-2h7m3-2H9V8h10M4 21h14v2H4c-1.1 0-2-.9-2-2V7h2"/></svg>

<?xml version="1.0" encoding="UTF-8"?><!DOCTYPE svg PUBLIC "-//W3C//DTD SVG 1.1//EN" "http://www.w3.org/Graphics/SVG/1.1/DTD/svg11.dtd"><svg xmlns="http://www.w3.org/2000/svg" xmlns:xlink="http://www.w3.org/1999/xlink" version="1.1" id="mdi-clipboard-text-multiple" width="24" height="24" viewBox="0 0 24 24"><path d="M20 3H16.8C16.4 1.8 15.3 1 14 1C12.7 1 11.6 1.8 11.2 3H8C6.9 3 6 3.9 6 5V17C6 18.1 6.9 19 8 19H20C21.1 19 22 18.1 22 17V5C22 3.9 21.1 3 20 3M14 3C14.6 3 15 3.5 15 4C15 4.5 14.5 5 14 5C13.5 5 13 4.5 13 4C13 3.5 13.4 3 14 3M16 14H9V12H16M19 10H9V8H19M4 21H18V23H4C2.9 23 2 22.1 2 21V7H4" /></svg>
